X:22
T:KITTY TIRRELL'S -- JIG.
R:jig
B:Coles pg. 64.2
Z:John B. Walsh, <walsh:mat:h.ubc.ca> 5/19/02
M:6/8
L:1/8
K:Bb
uF|{G}F=EF GAB|Bc(d d)FE|DFB {c}BAB|cgf ecA|
{G}F=EF GAB|B2(F F)DE|FdB {B}AGA|BFd B2:|
|:uB|BcB AG^F|AG^F G2=F|GFF FGE|DFB FFE|
{G}F=EF GA(B|B)cd FDE|F(ec) AGA|BFd B2:|
